X: 3304
T: Allegro
Q: "Allegro."
%R: waltz
B: James Kerr "Merry Melodies" v.3 p.33 #304
Z: 2016 John Chambers <jc:trillian.mit.edu>
M: 3/4
L: 1/8
K: G
d2 |\
d2dddd | g2f2e2 | d2dddd | d2B2d2 |\
c2cccc | c2A2d2 | B2BBBB | B2G2B2 |\
d2dddd | g2f2e2 | d2dddd | d2B2d2 |\
c2cccc | c2A2d2 | G2z2[f2A2] | [g2B2]z H|]

%%sep 1 1 500
%%sep 1 1 500

